assets/icon-heart.svg

<svg
  class="icon icon-accordion icon-heart"
  aria-hidden="true"
  focusable="false"
  xmlns="http://www.w3.org/2000/svg"
  width="20"
  height="20"
  viewBox="0 0 20 20"
>
  <path d="M10 5.2393L8.5149 3.77392C6.79996 2.08174 4.01945 2.08174 2.30451 3.77392C0.589562 5.4661 0.589563 8.2097 2.30451 9.90188L10 17.4952L17.6955 9.90188C19.4104 8.2097 19.4104 5.4661 17.6955 3.77392C15.9805 2.08174 13.2 2.08174 11.4851 3.77392L10 5.2393ZM10.765 3.06343C12.8777 0.978857 16.3029 0.978856 18.4155 3.06343C20.5282 5.148 20.5282 8.52779 18.4155 10.6124L10.72 18.2057C10.3224 18.5981 9.67763 18.5981 9.27996 18.2057L1.58446 10.6124C-0.528154 8.52779 -0.528154 5.14801 1.58446 3.06343C3.69708 0.978859 7.12233 0.978858 9.23495 3.06343L10 3.81832L10.765 3.06343Z" fill-rule="evenodd"/>
</svg>

<svg xmlns="http://www.w3.org/2000/svg" class="icon icon-accordion icon-heart" viewBox="0 0 20 20"><path fill-rule="evenodd" d="M10 5.24 8.515 3.773a4.433 4.433 0 0 0-6.21 0 4.293 4.293 0 0 0 0 6.128L10 17.495l7.695-7.593a4.293 4.293 0 0 0 0-6.128 4.433 4.433 0 0 0-6.21 0zm.765-2.177c2.113-2.084 5.538-2.084 7.65 0a5.29 5.29 0 0 1 0 7.55l-7.695 7.593a1.03 1.03 0 0 1-1.44 0l-7.696-7.594a5.29 5.29 0 0 1 0-7.549C3.697.98 7.122.98 9.234 3.063l.766.755z"/></svg>
